X: 42288
T: Weaving Dreams
R: barndance
M: 4/4
K: Dmajor
|:E2 CE FDDF|GEED CEAB|cdef gefd|(3cdc AF GEED|
E2CE FDDF|GEED CEAB|cdef gefd|(3cdc AE FDD2:|
|:ABcd eA (3AAA|gAfA eA (3AAA|cdef gfga|b2a2 (3gag f2|
efgf eA (3AAA|GAGF EFGE|A2 AB cded|(3cdc AE FDD2:|

